X: 9068
T: Da Guizer's
R: march
M: 
K: Dmajor
M:2/4
A,||D>E FA|d2Ad|c>d e/d/c/B/|Ad F>A|
GE A>G|FD DF|E/F/G/A/ B/A/G/F/|EA, CA,|
D>E FA|d2fd|c>d e/d/c/B/|Ad F>D|
GB E>G|FD d>f|e/d/c/B/ A/G/F/E/|FD D2f/g/|
a>f dA|B3c/d/|c>d e/d/c/B/|Ad fa|
bB g>b|ad d>f|g/a/b/a/ g/f/e/d/|cA Af/g/|
a>f dA|B3c/d/|c>d e/d/c/B/|Ad fa
bB Bb|aA Aa|g/f/e/d/ c/B/A/G/|FD D2||

